!!!OTL-incipit: DIE PINSGAUER WOLLTEN WALLFAHREN GEHN
!!!ARE: Europa, Mitteleuropa, Deutschland, Mitteleuropa, Tirol
!!!SCT: Z0135
!!!TXL: @@DE
!!!YEM: Copyright 1995, estate of Helmut Schaffrath.
**kern	**text
*ICvox	*
*M4/4	*
*met(c)	*
*k[]	*
*C:	*
!LO:TX:a:t=Solo	!
!LO:TX:a:t=Tyrol.	!
{4g	Die
=1	=1
4cc	Pinsgauer
4cc	.
8ccL	woll-
8bJ	.
8aL	-ten
8gJ	.
=2	=2
4cc	wall-
8cc	-fah-
8ee	-ren
2dd}	gahn,
=3	=3
!LO:TX:a:t=Chor	!
{2cc	Ky-
4a	-rie
4dd	e-
=4	=4
4cc	-lei-
4b	.
4cc;}	-ſon!
!LO:TX:a:t=Solo	!
{4g	Da-
=5	=5
4cc	-hin,
4cc	wo
8ccL	Sankt
8bJ	.
8aL	Sal-
8gJ	.
=6	=6
4cc	-va-
8cc	-tor
8ee	thät
2dd}	ſtahn,
=7	=7
!LO:TX:a:t=Chor	!
{2cc	Ky-
4a	-rie
4dd	e-
=8	=8
4cc	-lei-
4b	.
4cc;}	-ſon!
!LO:TX:a:t=Solo	!
{4cc	Des-
=8	=8
8ee	-halben
8ee	.
8ee	wär'n
8ee	wir
4ff	kommen,
8ff	.
8ff	des-
=9	=9
8dd	-halben
8dd	.
8dd	wär'n
8dd	wir
2gg}	do,
=10	=10
{4ee	juch,
4ee	juch-
[4.ff	-he!
8ff]	.
=11	=11
8dd	Ky-
8dd	-ri,
8dd	Ky-
8dd	-rie!
4.gg}	.
{8g	Ge-
=12	=12
8cc	-lo-
8dd	-bet
8cc	ſey
8b	die
8a	Kris-
8b/	-pel
8cc	und
8dd	die
=13	=13
4cc	Sa-
4b	-lo-
4cc	-me!
8r}	.
!LO:TX:a:t=Chor	!
{8cc	Ge-
=14	=14
8ee	-lo-
8dd	-bet
8cc	ſey
8b	die
8a	Kris-
8b/	-pel
8cc	und
8dd	die
=15	=15
4ee	Sa-
4dd	-lo-
4cc}	-me!
==	==
!!!AGN: Erzaehlung, lustige Romanze
!!!ONB: ESAC (Essen Associative Code) Database: ZUCCAL
!!!AMT: simple quadruple
!!!AIN: vox
!!!EED: Helmut Schaffrath
!!!EEV: 1.0
!!@@COMMENT:"In original two voices"
!!@@END:
!!!GTL: II. Erzahlungen, lustige Romanzen, Kinder-Lieder und episch-lyrische Volks-Lieder.
!!!URL-scan: https://www.digitale-sammlungen.de/de/view/bsb11160571?page=254
!!!ENC: Anna Maria Matuszewska
!!!EEV: 2025/01/28
*-	*-
